SVG_Azure_Grouped/Data/Azure Cosmos DB Feature.svg

<?xml version="1.0" encoding="UTF-8" standalone="no"?>
<!-- Generated by Microsoft Visio, SVG Export Azure Cosmos DB Feature.svg Page-1 -->

<svg
   xmlns:dc="http://purl.org/dc/elements/1.1/"
   xmlns:cc="http://creativecommons.org/ns#"
   xmlns:rdf="http://www.w3.org/1999/02/22-rdf-syntax-ns#"
   xmlns:svg="http://www.w3.org/2000/svg"
   xmlns="http://www.w3.org/2000/svg"
   xmlns:sodipodi="http://sodipodi.sourceforge.net/DTD/sodipodi-0.dtd"
   xmlns:inkscape="http://www.inkscape.org/namespaces/inkscape"
   width="0.7874043in"
   height="0.70870441in"
   viewBox="0 0 56.693177 51.026824"
   xml:space="preserve"
   class="st9"
   version="1.1"
   id="svg59"
   sodipodi:docname="Azure Cosmos DB Feature.svg"
   style="font-size:12px;overflow:visible;color-interpolation-filters:sRGB;fill:none;fill-rule:evenodd;stroke-linecap:square;stroke-miterlimit:3"
   inkscape:version="0.92.5 (2060ec1f9f, 2020-04-08)"><metadata
   id="metadata65"><rdf:RDF><cc:Work
       rdf:about=""><dc:format>image/svg+xml</dc:format><dc:type
         rdf:resource="http://purl.org/dc/dcmitype/StillImage" /></cc:Work></rdf:RDF></metadata><defs
   id="defs63" /><sodipodi:namedview
   pagecolor="#ffffff"
   bordercolor="#666666"
   borderopacity="1"
   objecttolerance="10"
   gridtolerance="10"
   guidetolerance="10"
   inkscape:pageopacity="0"
   inkscape:pageshadow="2"
   inkscape:window-width="640"
   inkscape:window-height="480"
   id="namedview61"
   showgrid="false"
   inkscape:zoom="1.8195051"
   inkscape:cx="37.795228"
   inkscape:cy="19.499465"
   inkscape:window-x="0"
   inkscape:window-y="0"
   inkscape:window-maximized="0"
   inkscape:current-layer="svg59" />
	<style
   type="text/css"
   id="style2">
	<![CDATA[
		.st1 {fill:#ba141a;stroke:none;stroke-linecap:butt;stroke-width:12.24}
		.st2 {fill:#804998;stroke:none;stroke-linecap:butt;stroke-width:12.24}
		.st3 {fill:#1e1e1e;stroke:none;stroke-linecap:butt;stroke-width:12.24}
		.st4 {fill:#fee087;fill-opacity:0.6;stroke:none;stroke-linecap:butt;stroke-width:12.24}
		.st5 {fill:#ff8c00;fill-opacity:0.8;stroke:none;stroke-linecap:butt;stroke-width:12.24}
		.st6 {fill:#ffffff;fill-opacity:0.2;stroke:none;stroke-linecap:butt;stroke-width:12.24}
		.st7 {fill:#1e1e1e;fill-opacity:0.3;stroke:none;stroke-linecap:butt;stroke-width:12.24}
		.st8 {fill:#e5e5e5;stroke:none;stroke-linecap:butt;stroke-width:12.24}
		.st9 {fill:none;fill-rule:evenodd;font-size:12px;overflow:visible;stroke-linecap:square;stroke-miterlimit:3}
	]]>
	</style>

	<g
   id="g57"
   transform="translate(-12.24,-12.2375)">
		<title
   id="title4">Page-1</title>
		<g
   id="group19756-1"
   transform="translate(12.24,-34.0157)">
			<title
   id="title6">Azure Cosmos DB Feature.19756</title>
			<g
   id="group19757-2">
				<title
   id="title8"> </title>
				<g
   id="shape19758-3"
   transform="translate(0.00125981)">
					<title
   id="title10">Sheet.19758</title>
					<path
   d="M 0,97.28 V 62.32 A 3.68748,3.68047 0 0 1 3.69,58.64 H 53 a 3.68748,3.68047 0 0 1 3.69,3.68 v 34.96 z"
   class="st1"
   id="path12"
   inkscape:connector-curvature="0"
   style="fill:#ba141a;stroke:none;stroke-width:12.23999977;stroke-linecap:butt" />
				</g>
				<g
   id="shape19759-5"
   transform="translate(46.7032,-4.48899)">
					<title
   id="title15">Sheet.19759</title>
					<path
   d="m 6.55,84.2 a 6.5524539,6.54 -180 1 0 0,13.08 6.49686,6.48452 -180 0 0 3.44,-1 V 85.2 a 6.50064,6.48829 -180 0 0 -3.44,-1 z"
   class="st2"
   id="path17"
   inkscape:connector-curvature="0"
   style="fill:#804998;stroke:none;stroke-width:12.23999977;stroke-linecap:butt" />
				</g>
				<g
   id="shape19760-7"
   transform="translate(12.4596,-38.6368)">
					<title
   id="title20">Sheet.19760</title>
					<path
   d="M 31.77,97.28 H 27.5 v -6.1 c 0,-1.12 -0.9,-2.03 -2.02,-2.03 H 6.29 a 2.0283,2.02445 -180 0 0 -2.02,2.03 v 6.1 H 0 v -6.1 a 6.30285,6.29088 0 0 1 6.29,-6.29 h 19.19 a 6.30159,6.28962 0 0 1 6.29,6.29 z"
   class="st3"
   id="path22"
   inkscape:connector-curvature="0"
   style="fill:#1e1e1e;stroke:none;stroke-width:12.23999977;stroke-linecap:butt" />
				</g>
				<g
   id="shape19761-9"
   transform="translate(0,-4.42864)">
					<title
   id="title25">Sheet.19761</title>
					<path
   d="M 21.51,89.42 0,84.3 v 8.31 l 19.64,4.67 z"
   class="st4"
   id="path27"
   inkscape:connector-curvature="0"
   style="fill:#fee087;fill-opacity:0.6;stroke:none;stroke-width:12.23999977;stroke-linecap:butt" />
				</g>
				<g
   id="shape19762-11"
   transform="translate(2.00814,-27.2697)">
					<title
   id="title30">Sheet.19762</title>
					<path
   d="M 16.69,91.56 C 17.01,93.64 13.6,95.89 9.08,96.59 4.56,97.28 0.64,96.15 0.32,94.07 0,91.99 3.4,89.74 7.92,89.05 c 4.52,-0.7 8.45,0.43 8.77,2.51 z"
   class="st5"
   id="path32"
   inkscape:connector-curvature="0"
   style="fill:#ff8c00;fill-opacity:0.8;stroke:none;stroke-width:12.23999977;stroke-linecap:butt" />
				</g>
				<g
   id="shape19763-13"
   transform="translate(48.8014,-6.58386)">
					<title
   id="title35">Sheet.19763</title>
					<path
   d="m 4.45,88.39 a 4.4534524,4.445 -180 1 0 0,8.89 4.42321,4.4148 -180 0 0 3.44,-1.65 V 90.04 A 4.42573,4.41732 -180 0 0 4.45,88.39 Z"
   class="st6"
   id="path37"
   inkscape:connector-curvature="0"
   style="fill:#ffffff;fill-opacity:0.2;stroke:none;stroke-width:12.23999977;stroke-linecap:butt" />
				</g>
				<g
   id="shape19764-15"
   transform="translate(0,-20.545)">
					<title
   id="title40">Sheet.19764</title>
					<rect
   x="0"
   y="94.623703"
   width="56.6917"
   height="2.6556699"
   class="st7"
   id="rect42"
   style="fill:#1e1e1e;fill-opacity:0.3;stroke:none;stroke-width:12.23999977;stroke-linecap:butt" />
				</g>
				<g
   id="shape19765-17"
   transform="translate(22.0442,-16.3414)">
					<title
   id="title45">Sheet.19765</title>
					<path
   d="m 10.95,88.96 c 0.91,0 1.65,0.74 1.65,1.65 v 5.02 c 0,0.91 -0.74,1.65 -1.65,1.65 H 1.65 A 1.65414,1.65099 0 0 1 0,95.63 V 90.61 C 0,89.7 0.74,88.96 1.65,88.96 Z"
   class="st7"
   id="path47"
   inkscape:connector-curvature="0"
   style="fill:#1e1e1e;fill-opacity:0.3;stroke:none;stroke-width:12.23999977;stroke-linecap:butt" />
				</g>
				<g
   id="shape19766-19"
   transform="translate(0.00125981,-21.9609)">
					<title
   id="title50">Sheet.19766</title>
					<path
   d="m 0,94.62 h 56.69 v 2.66 H 0 Z"
   class="st8"
   id="path52"
   inkscape:connector-curvature="0"
   style="fill:#e5e5e5;stroke:none;stroke-width:12.23999977;stroke-linecap:butt" />
				</g>
			</g>
		</g>
	</g>
</svg>

<?xml version="1.0" encoding="UTF-8" standalone="no"?>
<!DOCTYPE svg PUBLIC "-//W3C//DTD SVG 1.1//EN" "http://www.w3.org/Graphics/SVG/1.1/DTD/svg11.dtd">
<!-- Generated by Microsoft Visio, SVG Export Azure Cosmos DB Feature.svg Page-1 -->
<svg xmlns="http://www.w3.org/2000/svg" xmlns:xlink="http://www.w3.org/1999/xlink" xmlns:ev="http://www.w3.org/2001/xml-events"
		width="1.1274in" height="1.3511in" viewBox="0 0 81.1729 97.2794" xml:space="preserve" color-interpolation-filters="sRGB"
		class="st9">
	<style type="text/css">
	<![CDATA[
		.st1 {fill:#ba141a;stroke:none;stroke-linecap:butt;stroke-width:12.24}
		.st2 {fill:#804998;stroke:none;stroke-linecap:butt;stroke-width:12.24}
		.st3 {fill:#1e1e1e;stroke:none;stroke-linecap:butt;stroke-width:12.24}
		.st4 {fill:#fee087;fill-opacity:0.6;stroke:none;stroke-linecap:butt;stroke-width:12.24}
		.st5 {fill:#ff8c00;fill-opacity:0.8;stroke:none;stroke-linecap:butt;stroke-width:12.24}
		.st6 {fill:#ffffff;fill-opacity:0.2;stroke:none;stroke-linecap:butt;stroke-width:12.24}
		.st7 {fill:#1e1e1e;fill-opacity:0.3;stroke:none;stroke-linecap:butt;stroke-width:12.24}
		.st8 {fill:#e5e5e5;stroke:none;stroke-linecap:butt;stroke-width:12.24}
		.st9 {fill:none;fill-rule:evenodd;font-size:12px;overflow:visible;stroke-linecap:square;stroke-miterlimit:3}
	]]>
	</style>

	<g>
		<title>Page-1</title>
		<g id="group19307-1" transform="translate(12.24,-34.0157)">
			<title>Azure Cosmos DB Feature.19307</title>
			<g id="group19308-2">
				<title> </title>
				<g id="shape19309-3" transform="translate(0.00125981,-2.55795E-13)">
					<title>Sheet.19309</title>
					<path d="M0 97.28 L0 62.32 A3.68748 3.68047 0 0 1 3.69 58.64 L53 58.64 A3.68748 3.68047 0 0 1 56.69 62.32 L56.69
								 97.28 L0 97.28 Z" class="st1"/>
				</g>
				<g id="shape19310-5" transform="translate(46.7032,-4.48899)">
					<title>Sheet.19310</title>
					<path d="M6.55 84.2 A6.55041 6.53796 -180 1 0 6.55 97.28 A6.49686 6.48452 -180 0 0 9.99 96.28 L9.99 85.2 A6.50064
								 6.48829 -180 0 0 6.55 84.2 Z" class="st2"/>
				</g>
				<g id="shape19311-7" transform="translate(12.4596,-38.6368)">
					<title>Sheet.19311</title>
					<path d="M31.77 97.28 L27.5 97.28 L27.5 91.18 C27.5 90.06 26.6 89.15 25.48 89.15 L6.29 89.15 A2.0283 2.02445
								 -180 0 0 4.27 91.18 L4.27 97.28 L0 97.28 L0 91.18 A6.30285 6.29088 0 0 1 6.29 84.89 L25.48 84.89
								 A6.30159 6.28962 0 0 1 31.77 91.18 L31.77 97.28 Z" class="st3"/>
				</g>
				<g id="shape19312-9" transform="translate(-2.8777E-13,-4.42864)">
					<title>Sheet.19312</title>
					<path d="M21.51 89.42 L0 84.3 L0 92.61 L19.64 97.28 L21.51 89.42 Z" class="st4"/>
				</g>
				<g id="shape19313-11" transform="translate(2.00814,-27.2697)">
					<title>Sheet.19313</title>
					<path d="M16.69 91.56 C17.01 93.64 13.6 95.89 9.08 96.59 C4.56 97.28 0.64 96.15 0.32 94.07 C0 91.99 3.4 89.74
								 7.92 89.05 C12.44 88.35 16.37 89.48 16.69 91.56 Z" class="st5"/>
				</g>
				<g id="shape19314-13" transform="translate(48.8014,-6.58386)">
					<title>Sheet.19314</title>
					<path d="M4.45 88.39 A4.45218 4.44373 -180 1 0 4.45 97.28 A4.42321 4.4148 -180 0 0 7.89 95.63 L7.89 90.04 A4.42573
								 4.41732 -180 0 0 4.45 88.39 Z" class="st6"/>
				</g>
				<g id="shape19315-15" transform="translate(2.83773E-13,-20.545)">
					<title>Sheet.19315</title>
					<rect x="0" y="94.6237" width="56.6917" height="2.65567" class="st7"/>
				</g>
				<g id="shape19316-17" transform="translate(22.0442,-16.3414)">
					<title>Sheet.19316</title>
					<path d="M10.95 88.96 C11.86 88.96 12.6 89.7 12.6 90.61 L12.6 95.63 C12.6 96.54 11.86 97.28 10.95 97.28 L1.65
								 97.28 A1.65414 1.65099 0 0 1 -0 95.63 L0 90.61 C0 89.7 0.74 88.96 1.65 88.96 L10.95 88.96 Z"
							class="st7"/>
				</g>
				<g id="shape19317-19" transform="translate(0.00125981,-21.9609)">
					<title>Sheet.19317</title>
					<path d="M0 94.62 L56.69 94.62 L56.69 97.28 L0 97.28 L0 94.62 Z" class="st8"/>
				</g>
			</g>
		</g>
	</g>
</svg>
